client/public/images/icons/vector.svg

<svg fill="none" height="18" viewBox="0 0 18 18" width="18" xmlns="http://www.w3.org/2000/svg"><path d="m9.72072 1c1.51628.14012 2.96128.70918 4.16598 1.64059s2.1192 2.18665 2.6365 3.61883.616 2.98208.2846 4.46828c-.3314 1.4863-1.0792 2.8474-2.1559 3.9242-1.0768 1.0767-2.4379 1.8245-3.9242 2.1559-1.4862.3314-3.0361.2327-4.46828-.2846s-2.68742-1.4318-3.61883-2.6365-1.50047-2.6497-1.64059-4.16598c1.20101.88778 2.68075 1.31488 4.1701 1.20388 1.48935-.1111 2.88937-.753 3.94543-1.80907 1.05607-1.05606 1.69797-2.45608 1.80907-3.94543.111-1.48935-.3161-2.96909-1.20388-4.1701z" stroke="#18191a" stroke-linecap="round" stroke-linejoin="round" stroke-width="2"/></svg>

<svg width="18" height="18" viewBox="0 0 18 18" fill="none" xmlns="http://www.w3.org/2000/svg">
<path d="M9.72072 1C11.237 1.14012 12.682 1.70918 13.8867 2.64059C15.0914 3.572 16.0059 4.82724 16.5232 6.25942C17.0405 7.6916 17.1392 9.2415 16.8078 10.7277C16.4764 12.214 15.7286 13.5751 14.6519 14.6519C13.5751 15.7286 12.214 16.4764 10.7277 16.8078C9.2415 17.1392 7.6916 17.0405 6.25942 16.5232C4.82724 16.0059 3.572 15.0914 2.64059 13.8867C1.70918 12.682 1.14012 11.237 1 9.72072C2.20101 10.6085 3.68075 11.0356 5.1701 10.9246C6.65945 10.8135 8.05947 10.1716 9.11553 9.11553C10.1716 8.05947 10.8135 6.65945 10.9246 5.1701C11.0356 3.68075 10.6085 2.20101 9.72072 1Z" stroke="#18191A" stroke-width="2" stroke-linecap="round" stroke-linejoin="round"/>
</svg>
